X: 41
T:May Moon,The. JMT.040
M:6/8
L:1/8
S:J,Moore,Tyneside,1841.(29a)
R:Jig
O:England
A:Northumbria
H:184
Z:vmp.J.Adam
K:D
A|d2A AFA|d2A AFA|d2d ede|f2d def|g2g f2f|!efd cBA|BAG FGA|B2A A2:|
|:f|aba fdf|aba fdf|!aba fdf|g2e e2f|afa geg|fed cBA|BAG FGA|B2A A2:|
